svg/alphanum/1-square.svg

<svg width="448" height="512" viewBox="0 0 448 512" version="1.1" xmlns="http://www.w3.org/2000/svg"><path fill="currentColor" d="M400,480l-352,0c-26.51,0 -48,-21.49 -48,-48l0,-352c0,-26.51 21.49,-48 48,-48l352,0c26.51,0 48,21.49 48,48l0,352c0,26.51 -21.49,48 -48,48Zm-160,-352l-48,0c-10.757,16.519 -39.874,35.11 -62.5,40c-0.078,0.016 -0.155,0.032 -0.233,0.049c-0.418,-0.032 -0.841,-0.049 -1.267,-0.049c-8.837,0 -16,7.163 -16,16c0,0.455 0.019,0.905 0.056,1.35c-0.037,0.325 -0.056,0.646 -0.056,0.962l0,21.904c0,0.024 0.001,0.05 0.003,0.077c0.156,8.702 7.258,15.707 15.997,15.707c0.71,0 1.408,-0.046 2.093,-0.136c0.649,0.089 1.307,0.136 1.973,0.136c21.32,0 39.868,-11.383 55.959,-21.258c1.342,-0.824 2.667,-1.637 3.975,-2.432l0,119.69l-64,0c-8.837,0 -16,7.163 -16,16l0,32c0,8.837 7.163,16 16,16l192,0c8.837,0 16,-7.163 16,-16l0,-32c0,-8.837 -7.163,-16 -16,-16l-64,0l0,-176c0,-8.837 -7.163,-16 -16,-16Z"></path></svg>

<svg width="448" height="512" viewBox="0 0 448 512" fill="none" xmlns="http://www.w3.org/2000/svg">
<path fill-rule="evenodd" clip-rule="evenodd" d="M48 32C21.4903 32 0 53.4903 0 80V432C0 458.51 21.4903 480 48 480H400C426.51 480 448 458.51 448 432V80C448 53.4903 426.51 32 400 32H48ZM112 208.216C112 208.24 112.001 208.266 112.003 208.293C112.159 216.995 119.261 224 128 224C128.71 224 129.408 223.954 130.093 223.864C130.742 223.953 131.4 224 132.066 224C153.386 224 171.934 212.617 188.025 202.742C189.367 201.918 190.692 201.105 192 200.31V320H128C119.163 320 112 327.163 112 336V368C112 376.837 119.163 384 128 384H320C328.837 384 336 376.837 336 368V336C336 327.163 328.837 320 320 320H256V144C256 135.163 248.837 128 240 128H192C181.244 144.518 152.126 163.11 129.5 168C129.422 168.016 129.345 168.032 129.267 168.049C128.849 168.017 128.426 168 128 168C119.163 168 112 175.163 112 184C112 184.455 112.019 184.905 112.056 185.35C112.019 185.675 112 185.996 112 186.312V208.216Z" fill="black"/>
</svg>
